X: 39241
T: Tae In The Bog
R: jig
M: 6/8
K: Gmajor
|:E|DGG GFG|Bdd dge|d2e dBG|EAA AGE|
DGG GFG|Bdd dge|d2e dBG|EAF G2:|
|:B|def gdB|edB dBA|def gdB|Aee edB|
def gdB|edB dBA|G2e dBG|EAF G2:|

